X:1
T:Title
%%score { ( 1 3 ) | ( 2 4 ) }
L:1/8
M:4/4
K:G
V:1 treble nm="Grand Piano"
V:3 treble 
V:2 bass 
V:4 bass 
V:1
 z4 z2[Q:1/4=100] D>D | G>G G>G G2 F>G | [FA]>[FA] [FA]>[FA] [FA]2 B>c | d6 z2 | [FA]6 z2 | %5
 G>G G>G G2 F>G | [FA]>[FA] [FA]>[FA] [FA]2 B>c | d>d e>d B2 [FB]>[FA] |[M:7/8] G-G-G- G- G3 | %9
[M:1/4] D>D |[M:4/4] G2 D>D G>G [FA]>[FA] | [GB]6 z2 | B2 G>G B>B [EG^c]>[EGc] | [Fd]6 z2 | %14
 [DBd]>[DBd] [DBd]>[DBd] [DBd]2 [DGB]>[DGB] | [Ac]>[Ac] [Ac]>[Ac] [Ac]2 [GB]>[FA] | %16
 B>B B>B B2 [CFA]>[CFA] |[M:3/4] G6 |] %18
V:2
 z4 z2 [G,B,]>[G,B,] | [G,B,D]>[G,B,D] [G,B,D]>[G,B,D] [B,D]2 [A,CD]>[G,B,D] | %2
 [D,D]>[D,D] [D,D]>[D,D] [D,D]2[K:treble] [G,DG]>[A,DF] | %3
 [B,DG]2 [A,C]>[A,C][K:bass] [G,B,]2 [F,D]>[G,D] | [D,D]2 D,>D, D,2 [D,C]>[D,C] | %5
 [G,B,D]>[G,B,D] [G,B,D]>[G,B,D] [B,D]2 [A,CD]>[G,B,D] | %6
 [D,D]>[D,D] [D,D]>[D,D] [D,D]2[K:treble] [G,DG]>[A,DF] | %7
 [B,DG]>[B,DG] [CG]>[B,DG] [G,DG]2[K:bass] [D,D]>[D,C] |[M:7/8] G,2- [G,-C]>[G,-C] [G,B,]3 | %9
[M:1/4] [G,B,]>[G,B,] |[M:4/4] [G,B,D]2 [G,B,]>[G,B,] [G,B,D]>[G,B,D] [D,D]>[D,D] | %11
 [G,D]2 G,>G, G,2[K:treble] [G,B,D]>[G,B,D] | %12
 [G,DG]2 [G,B,D]>[G,B,D] [G,DG]>[G,DG][K:bass] A,,>A,, | D,2 D,>D, D,2 G,>G, | %14
 G,>G, G,>G, G,2 G,>G, | [D,D]>[D,D] [D,D]>[D,D] [D,D]2 [D,D]>[D,D] | %16
 [G,DG]>[G,DG] [G,DG]>[G,DG] [G,DG]2[K:bass] D,>D, |[M:3/4] z2 C>C B,2 |] %18
V:3
 x8 | x8 | x8 | z2 F>F G2 [Ac]>[GB] | z2 D>D D2 D>D | x8 | x8 | x8 |[M:7/8] z2 E>E D3 |[M:1/4] x2 | %10
[M:4/4] x8 | z2 D>D D2 G>G | x8 | D2 D>D D2 [DGB]>[DGB] | x8 | x8 | x8 |[M:3/4] [B,D]2 E>E D2 |] %18
V:4
 x8 | x8 | x6[K:treble] x2 | x4[K:bass] x4 | x8 | x8 | x6[K:treble] x2 | x6[K:bass] x2 | %8
[M:7/8] B,2 z z z z2 |[M:1/4] x2 |[M:4/4] x8 | x6[K:treble] x2 | x6[K:bass] x2 | x8 | x8 | x8 | %16
 x6[K:bass] x2 |[M:3/4] G,,6 |] %18

